assets/logo.svg

<svg width="181" height="48" viewBox="0 0 181 48" fill="none" xmlns="http://www.w3.org/2000/svg">
<path d="M18.9839 28.9718L27.6131 24.2258V37.0425L18.9839 42.096V28.9718Z" fill="white"/>
<path d="M12.9438 24.8092L0 31.8204L12.9438 39.5867V24.8092Z" fill="#12B8C2"/>
<path fill-rule="evenodd" clip-rule="evenodd" d="M18.8764 23.4067L0 12.2966V17.2584L13.0517 24.7011V39.8022L0 31.9281V36.6742L18.8764 48V42.2831V28.9079V23.4067Z" fill="#C4C4C4"/>
<path fill-rule="evenodd" clip-rule="evenodd" d="M36.6742 13.591L22.5438 21.3573L18.9884 23.2286L18.9843 28.8487L27.7214 24.0539V37.1056L18.9843 42.22V47.9353L40.773 35.0562V29.0157L33.3303 33.6539V27.5056V20.818L40.773 16.9348V11.5416L36.6742 13.591Z" fill="#C4C4C4"/>
<path fill-rule="evenodd" clip-rule="evenodd" d="M22.5438 4.9618L7.87416 12.6202L22.456 21.305L18.8764 23.1617L0.21573 12.0809L22.5438 0L40.4958 11.4337L36.5237 13.4991L22.5438 4.9618Z" fill="#C4C4C4"/>
<path d="M22.5457 5.07031V21.2501L8.0918 12.6209L22.5457 5.07031Z" fill="#12B8C2"/>
<path d="M22.5419 21.2491V5.0693L36.4565 13.5761L22.5419 21.2491Z" fill="white"/>
<path d="M33.4346 27.0739V33.438L40.7694 28.9076L33.4346 27.0739Z" fill="#12B8C2"/>
<path d="M60.144 35.288C58.496 35.288 57.072 34.928 55.872 34.208C54.688 33.472 53.768 32.456 53.112 31.16C52.456 29.848 52.128 28.328 52.128 26.6C52.128 24.888 52.456 23.384 53.112 22.088C53.768 20.776 54.688 19.752 55.872 19.016C57.072 18.28 58.496 17.912 60.144 17.912C62.064 17.912 63.624 18.376 64.824 19.304C66.04 20.216 66.816 21.496 67.152 23.144H64.92C64.664 22.104 64.136 21.272 63.336 20.648C62.552 20.008 61.488 19.688 60.144 19.688C58.944 19.688 57.896 19.968 57 20.528C56.104 21.072 55.408 21.864 54.912 22.904C54.432 23.928 54.192 25.16 54.192 26.6C54.192 28.04 54.432 29.28 54.912 30.32C55.408 31.344 56.104 32.136 57 32.696C57.896 33.24 58.944 33.512 60.144 33.512C61.488 33.512 62.552 33.208 63.336 32.6C64.136 31.976 64.664 31.152 64.92 30.128H67.152C66.816 31.744 66.04 33.008 64.824 33.92C63.624 34.832 62.064 35.288 60.144 35.288ZM77.6814 35.288C76.0334 35.288 74.5854 34.928 73.3374 34.208C72.1054 33.472 71.1374 32.448 70.4334 31.136C69.7454 29.824 69.4014 28.312 69.4014 26.6C69.4014 24.888 69.7454 23.384 70.4334 22.088C71.1374 20.776 72.1054 19.752 73.3374 19.016C74.5854 18.28 76.0334 17.912 77.6814 17.912C79.3454 17.912 80.7934 18.28 82.0254 19.016C83.2734 19.752 84.2414 20.776 84.9294 22.088C85.6174 23.384 85.9614 24.888 85.9614 26.6C85.9614 28.312 85.6174 29.824 84.9294 31.136C84.2414 32.448 83.2734 33.472 82.0254 34.208C80.7934 34.928 79.3454 35.288 77.6814 35.288ZM77.6814 33.512C78.9134 33.512 79.9934 33.24 80.9214 32.696C81.8654 32.136 82.5934 31.344 83.1054 30.32C83.6334 29.28 83.8974 28.04 83.8974 26.6C83.8974 25.16 83.6334 23.928 83.1054 22.904C82.5934 21.88 81.8654 21.096 80.9214 20.552C79.9934 19.992 78.9134 19.712 77.6814 19.712C76.4494 19.712 75.3614 19.992 74.4174 20.552C73.4894 21.096 72.7614 21.88 72.2334 22.904C71.7214 23.928 71.4654 25.16 71.4654 26.6C71.4654 28.04 71.7214 29.28 72.2334 30.32C72.7614 31.344 73.4894 32.136 74.4174 32.696C75.3614 33.24 76.4494 33.512 77.6814 33.512ZM88.8698 35V18.2H90.8858L99.8378 31.664V18.2H101.854V35H99.8378L90.8858 21.536V35H88.8698ZM112.785 35.288C111.137 35.288 109.713 34.928 108.513 34.208C107.329 33.472 106.409 32.456 105.753 31.16C105.097 29.848 104.769 28.328 104.769 26.6C104.769 24.888 105.097 23.384 105.753 22.088C106.409 20.776 107.329 19.752 108.513 19.016C109.713 18.28 111.137 17.912 112.785 17.912C114.705 17.912 116.265 18.376 117.465 19.304C118.681 20.216 119.457 21.496 119.793 23.144H117.561C117.305 22.104 116.777 21.272 115.977 20.648C115.193 20.008 114.129 19.688 112.785 19.688C111.585 19.688 110.537 19.968 109.641 20.528C108.745 21.072 108.049 21.864 107.553 22.904C107.073 23.928 106.833 25.16 106.833 26.6C106.833 28.04 107.073 29.28 107.553 30.32C108.049 31.344 108.745 32.136 109.641 32.696C110.537 33.24 111.585 33.512 112.785 33.512C114.129 33.512 115.193 33.208 115.977 32.6C116.777 31.976 117.305 31.152 117.561 30.128H119.793C119.457 31.744 118.681 33.008 117.465 33.92C116.265 34.832 114.705 35.288 112.785 35.288ZM122.69 35V18.2H133.082V19.856H124.706V25.712H132.362V27.344H124.706V33.344H133.082V35H122.69ZM136.237 35V18.2H138.253V35H136.237ZM145.751 35V19.856H140.735V18.2H152.783V19.856H147.767V35H145.751ZM162.01 35.288C160.362 35.288 158.914 34.928 157.666 34.208C156.434 33.472 155.466 32.448 154.762 31.136C154.074 29.824 153.73 28.312 153.73 26.6C153.73 24.888 154.074 23.384 154.762 22.088C155.466 20.776 156.434 19.752 157.666 19.016C158.914 18.28 160.362 17.912 162.01 17.912C163.674 17.912 165.122 18.28 166.354 19.016C167.602 19.752 168.57 20.776 169.258 22.088C169.946 23.384 170.29 24.888 170.29 26.6C170.29 28.312 169.946 29.824 169.258 31.136C168.57 32.448 167.602 33.472 166.354 34.208C165.122 34.928 163.674 35.288 162.01 35.288ZM162.01 33.512C163.242 33.512 164.322 33.24 165.25 32.696C166.194 32.136 166.922 31.344 167.434 30.32C167.962 29.28 168.226 28.04 168.226 26.6C168.226 25.16 167.962 23.928 167.434 22.904C166.922 21.88 166.194 21.096 165.25 20.552C164.322 19.992 163.242 19.712 162.01 19.712C160.778 19.712 159.69 19.992 158.746 20.552C157.818 21.096 157.09 21.88 156.562 22.904C156.05 23.928 155.794 25.16 155.794 26.6C155.794 28.04 156.05 29.28 156.562 30.32C157.09 31.344 157.818 32.136 158.746 32.696C159.69 33.24 160.778 33.512 162.01 33.512Z" fill="white"/>
</svg>

<svg width="181" height="48" fill="none" xmlns="http://www.w3.org/2000/svg"><path d="m18.984 28.972 8.63-4.746v12.816l-8.63 5.054V28.972Z" fill="#fff"/><path d="M12.944 24.81 0 31.82l12.944 7.767V24.809Z" fill="#12B8C2"/><path fill-rule="evenodd" clip-rule="evenodd" d="M18.876 23.407 0 12.297v4.961l13.052 7.443v15.101L0 31.928v4.746L18.876 48V23.407ZM36.674 13.591l-14.13 7.766-3.556 1.872-.004 5.62 8.737-4.795v13.052l-8.737 5.114v5.715l21.789-12.879v-6.04l-7.443 4.638V20.818l7.443-3.883v-5.393l-4.099 2.049ZM22.544 4.962 7.874 12.62l14.582 8.685-3.58 1.857L.216 12.08 22.544 0l17.952 11.434-3.972 2.065-13.98-8.537Z" fill="#C4C4C4"/><path d="M22.546 5.07v16.18L8.092 12.62l14.454-7.55Z" fill="#12B8C2"/><path d="M22.542 21.25V5.07l13.914 8.506-13.914 7.673Z" fill="#fff"/><path d="M33.435 27.074v6.364l7.334-4.53-7.334-1.834Z" fill="#12B8C2"/><path d="M60.144 35.288c-1.648 0-3.072-.36-4.272-1.08-1.184-.736-2.104-1.752-2.76-3.048-.656-1.312-.984-2.832-.984-4.56 0-1.712.328-3.216.984-4.512.656-1.312 1.576-2.336 2.76-3.072 1.2-.736 2.624-1.104 4.272-1.104 1.92 0 3.48.464 4.68 1.392 1.216.912 1.992 2.192 2.328 3.84H64.92c-.256-1.04-.784-1.872-1.584-2.496-.784-.64-1.848-.96-3.192-.96-1.2 0-2.248.28-3.144.84-.896.544-1.592 1.336-2.088 2.376-.48 1.024-.72 2.256-.72 3.696 0 1.44.24 2.68.72 3.72.496 1.024 1.192 1.816 2.088 2.376.896.544 1.944.816 3.144.816 1.344 0 2.408-.304 3.192-.912.8-.624 1.328-1.448 1.584-2.472h2.232c-.336 1.616-1.112 2.88-2.328 3.792-1.2.912-2.76 1.368-4.68 1.368Zm17.537 0c-1.648 0-3.096-.36-4.344-1.08-1.232-.736-2.2-1.76-2.904-3.072-.688-1.312-1.032-2.824-1.032-4.536 0-1.712.344-3.216 1.032-4.512.704-1.312 1.672-2.336 2.904-3.072 1.248-.736 2.696-1.104 4.344-1.104 1.664 0 3.112.368 4.344 1.104a7.572 7.572 0 0 1 2.904 3.072c.688 1.296 1.032 2.8 1.032 4.512 0 1.712-.344 3.224-1.032 4.536a7.572 7.572 0 0 1-2.904 3.072c-1.232.72-2.68 1.08-4.344 1.08Zm0-1.776c1.232 0 2.312-.272 3.24-.816.944-.56 1.672-1.352 2.184-2.376.528-1.04.792-2.28.792-3.72 0-1.44-.264-2.672-.792-3.696-.512-1.024-1.24-1.808-2.184-2.352-.928-.56-2.008-.84-3.24-.84-1.232 0-2.32.28-3.264.84-.928.544-1.656 1.328-2.184 2.352-.512 1.024-.768 2.256-.768 3.696 0 1.44.256 2.68.768 3.72.528 1.024 1.256 1.816 2.184 2.376.944.544 2.032.816 3.264.816ZM88.87 35V18.2h2.016l8.952 13.464V18.2h2.016V35h-2.016l-8.952-13.464V35H88.87Zm23.915.288c-1.648 0-3.072-.36-4.272-1.08-1.184-.736-2.104-1.752-2.76-3.048-.656-1.312-.984-2.832-.984-4.56 0-1.712.328-3.216.984-4.512.656-1.312 1.576-2.336 2.76-3.072 1.2-.736 2.624-1.104 4.272-1.104 1.92 0 3.48.464 4.68 1.392 1.216.912 1.992 2.192 2.328 3.84h-2.232c-.256-1.04-.784-1.872-1.584-2.496-.784-.64-1.848-.96-3.192-.96-1.2 0-2.248.28-3.144.84-.896.544-1.592 1.336-2.088 2.376-.48 1.024-.72 2.256-.72 3.696 0 1.44.24 2.68.72 3.72.496 1.024 1.192 1.816 2.088 2.376.896.544 1.944.816 3.144.816 1.344 0 2.408-.304 3.192-.912.8-.624 1.328-1.448 1.584-2.472h2.232c-.336 1.616-1.112 2.88-2.328 3.792-1.2.912-2.76 1.368-4.68 1.368ZM122.69 35V18.2h10.392v1.656h-8.376v5.856h7.656v1.632h-7.656v6h8.376V35H122.69Zm13.547 0V18.2h2.016V35h-2.016Zm9.514 0V19.856h-5.016V18.2h12.048v1.656h-5.016V35h-2.016Zm16.259.288c-1.648 0-3.096-.36-4.344-1.08-1.232-.736-2.2-1.76-2.904-3.072-.688-1.312-1.032-2.824-1.032-4.536 0-1.712.344-3.216 1.032-4.512.704-1.312 1.672-2.336 2.904-3.072 1.248-.736 2.696-1.104 4.344-1.104 1.664 0 3.112.368 4.344 1.104a7.572 7.572 0 0 1 2.904 3.072c.688 1.296 1.032 2.8 1.032 4.512 0 1.712-.344 3.224-1.032 4.536a7.572 7.572 0 0 1-2.904 3.072c-1.232.72-2.68 1.08-4.344 1.08Zm0-1.776c1.232 0 2.312-.272 3.24-.816.944-.56 1.672-1.352 2.184-2.376.528-1.04.792-2.28.792-3.72 0-1.44-.264-2.672-.792-3.696-.512-1.024-1.24-1.808-2.184-2.352-.928-.56-2.008-.84-3.24-.84-1.232 0-2.32.28-3.264.84-.928.544-1.656 1.328-2.184 2.352-.512 1.024-.768 2.256-.768 3.696 0 1.44.256 2.68.768 3.72.528 1.024 1.256 1.816 2.184 2.376.944.544 2.032.816 3.264.816Z" fill="#fff"/></svg>
